src/images/header-icon-number.svg

<svg width="20" height="20" viewBox="0 0 20 20" fill="none" xmlns="http://www.w3.org/2000/svg">
<path fill-rule="evenodd" clip-rule="evenodd" d="M3.94236 3.79964C3.70066 5.47093 3.46244 9.98461 7.00935 13.5315C10.5562 17.0784 15.0699 16.8402 16.7412 16.5985V13.1786L13.2295 12.5933L12.6993 13.6537C12.5652 13.9219 12.2911 14.0913 11.9912 14.0913V13.2996C11.9912 14.0913 11.9908 14.0913 11.9904 14.0913L11.9896 14.0913L11.9878 14.0913L11.9838 14.0913L11.9741 14.0912C11.9668 14.091 11.9579 14.0908 11.9475 14.0905C11.9268 14.0898 11.8999 14.0886 11.8674 14.0865C11.8024 14.0821 11.7146 14.074 11.6071 14.0586C11.3924 14.0279 11.0981 13.9684 10.7513 13.8528C10.0549 13.6206 9.15314 13.1645 8.26476 12.2761C7.37638 11.3877 6.92024 10.486 6.6881 9.78957C6.57248 9.44273 6.51293 9.14851 6.48225 8.93373C6.4669 8.82628 6.45873 8.73842 6.4544 8.67343C6.45223 8.64092 6.45102 8.61409 6.45035 8.59333C6.45002 8.58296 6.44982 8.57409 6.4497 8.5668L6.44958 8.55703L6.44956 8.55303L6.44955 8.55126L6.44955 8.55043C6.44955 8.55003 6.44955 8.54964 7.24122 8.54964H6.44955C6.44955 8.28495 6.58184 8.03776 6.80208 7.89093L8.64261 6.66391L7.4969 3.79964H3.94236ZM8.09119 8.93446L9.52089 7.98133C10.1439 7.566 10.3908 6.77106 10.1127 6.07588L8.96699 3.21161C8.72654 2.61048 8.14433 2.21631 7.4969 2.21631H3.901C3.18176 2.21631 2.50475 2.71598 2.38667 3.49636C2.11805 5.27175 1.75242 10.5138 5.88976 14.6511C10.0271 18.7884 15.2691 18.4228 17.0445 18.1542C17.8249 18.0361 18.3246 17.3591 18.3246 16.6399V13.1786C18.3246 12.4046 17.765 11.7441 17.0015 11.6168L13.4898 11.0315C12.8041 10.9173 12.1242 11.2635 11.8133 11.8852L11.539 12.4339C11.4528 12.4127 11.3565 12.3855 11.252 12.3507C10.7609 12.187 10.0793 11.8515 9.38435 11.1565C8.68939 10.4616 8.35387 9.77994 8.19018 9.28888C8.14595 9.15618 8.1141 9.03687 8.09119 8.93446Z" fill="#37AEE2"/>
</svg>

<svg xmlns="http://www.w3.org/2000/svg" width="20" height="20" fill="none"><path fill="#37AEE2" fill-rule="evenodd" d="M3.942 3.8c-.241 1.67-.48 6.185 3.067 9.732 3.547 3.546 8.06 3.308 9.732 3.067v-3.42l-3.511-.586-.53 1.06a.792.792 0 0 1-.709.438V13.3v.791h-.044a2.615 2.615 0 0 1-.34-.032 4.93 4.93 0 0 1-.856-.206c-.696-.232-1.598-.688-2.486-1.577-.889-.888-1.345-1.79-1.577-2.486a4.926 4.926 0 0 1-.206-.856 3.493 3.493 0 0 1-.032-.367V8.55l.791-.001H6.45c0-.265.132-.512.352-.66l1.84-1.226L7.498 3.8H3.942Zm4.15 5.134 1.429-.953c.623-.415.87-1.21.592-1.905L8.967 3.212a1.583 1.583 0 0 0-1.47-.996H3.9c-.72 0-1.396.5-1.514 1.28-.269 1.776-.635 7.018 3.503 11.155 4.137 4.137 9.38 3.772 11.155 3.503.78-.118 1.28-.795 1.28-1.514v-3.461c0-.774-.56-1.435-1.323-1.562l-3.512-.586a1.583 1.583 0 0 0-1.677.854l-.274.549a3.727 3.727 0 0 1-.287-.083c-.491-.164-1.173-.5-1.868-1.195-.695-.694-1.03-1.376-1.194-1.867a3.628 3.628 0 0 1-.099-.355Z" clip-rule="evenodd"/></svg>
